svgs/light/conveyor-belt-empty.svg

<svg xmlns="http://www.w3.org/2000/svg" viewBox="0 0 640 512"><!-- Font Awesome Pro 6.0.0-alpha2 by @fontawesome - https://fontawesome.com License - https://fontawesome.com/license (Commercial License) --><path d="M544 320H96C43 320 0 363 0 416S43 512 96 512H544C597 512 640 469 640 416S597 320 544 320ZM544 480H96C60.75 480 32 451.25 32 416S60.75 352 96 352H544C579.25 352 608 380.75 608 416S579.25 480 544 480ZM128 392C114.746 392 104 402.744 104 416C104 429.254 114.746 440 128 440S152 429.254 152 416C152 402.744 141.254 392 128 392ZM320 392C306.746 392 296 402.744 296 416C296 429.254 306.746 440 320 440S344 429.254 344 416C344 402.744 333.254 392 320 392ZM512 392C498.746 392 488 402.744 488 416C488 429.254 498.746 440 512 440S536 429.254 536 416C536 402.744 525.254 392 512 392Z"/></svg>

<svg xmlns="http://www.w3.org/2000/svg" viewBox="0 0 640 512"><!--! Font Awesome Pro 6.0.0-alpha3 by @fontawesome - https://fontawesome.com License - https://fontawesome.com/license (Commercial License) --><path d="M544 320H96c-53 0-96 43-96 96s43 96 96 96h448c53 0 96-43 96-96S597 320 544 320zM544 480H96c-35.25 0-64-28.75-64-64s28.75-64 64-64h448c35.25 0 64 28.75 64 64S579.3 480 544 480zM128 392c-13.25 0-24 10.74-24 24c0 13.25 10.75 24 24 24S152 429.3 152 416C152 402.7 141.3 392 128 392zM320 392c-13.25 0-24 10.74-24 24c0 13.25 10.75 24 24 24s24-10.75 24-24C344 402.7 333.3 392 320 392zM512 392c-13.25 0-24 10.74-24 24c0 13.25 10.75 24 24 24s24-10.75 24-24C536 402.7 525.3 392 512 392z"/></svg>
